src/lib/packages/icons/src/assets/line/location-pin-minus.svg

<svg xmlns="http://www.w3.org/2000/svg" width="24" height="24" fill="none"><path fill="currentColor" d="M12 21.75a.75.75 0 0 1-.416-.126l-.529-.351C7.947 19.22 3.25 16.118 3.25 11c0-4.825 3.925-8.75 8.75-8.75s8.75 3.925 8.75 8.75c0 5.118-4.697 8.22-7.805 10.273l-.529.351a.75.75 0 0 1-.416.126Zm0-18c-3.998 0-7.25 3.252-7.25 7.25 0 4.311 4.122 7.034 7.131 9.021l.119.08.119-.08c3.01-1.988 7.131-4.71 7.131-9.021 0-3.998-3.252-7.25-7.25-7.25ZM15.25 11a.75.75 0 0 0-.75-.75h-5a.75.75 0 0 0 0 1.5h5a.75.75 0 0 0 .75-.75Z"/></svg>

<svg width="24" height="24" viewBox="0 0 24 24" fill="none" xmlns="http://www.w3.org/2000/svg">
<path d="M12 21.75C11.855 21.75 11.71 21.708 11.584 21.624L11.055 21.2729C7.94699 19.2199 3.25 16.118 3.25 11C3.25 6.175 7.175 2.25 12 2.25C16.825 2.25 20.75 6.175 20.75 11C20.75 16.118 16.053 19.2199 12.945 21.2729L12.416 21.624C12.29 21.708 12.145 21.75 12 21.75ZM12 3.75C8.002 3.75 4.75 7.002 4.75 11C4.75 15.311 8.87201 18.034 11.881 20.021L12 20.1001L12.119 20.021C15.129 18.033 19.25 15.311 19.25 11C19.25 7.002 15.998 3.75 12 3.75ZM15.25 11C15.25 10.586 14.914 10.25 14.5 10.25H9.5C9.086 10.25 8.75 10.586 8.75 11C8.75 11.414 9.086 11.75 9.5 11.75H14.5C14.914 11.75 15.25 11.414 15.25 11Z" fill="currentColor"/>
</svg>
